source/Icon/text-recognition.svg

<svg width="32" height="32" viewBox="0 0 48 48" fill="none" xmlns="http://www.w3.org/2000/svg">
    <path d="M6 33V39C6 40.6569 7.34315 42 9 42H15" stroke="#000000" stroke-width="4" stroke-linecap="round" stroke-linejoin="round"/>
    <path d="M33 42H39C40.6569 42 42 40.6569 42 39V33" stroke="#000000" stroke-width="4" stroke-linecap="round" stroke-linejoin="round"/>
    <path d="M42 15V9C42 7.34315 40.6569 6 39 6H33" stroke="#000000" stroke-width="4" stroke-linecap="round" stroke-linejoin="round"/>
    <path d="M6 15V9C6 7.34315 7.34315 6 9 6H15" stroke="#000000" stroke-width="4" stroke-linecap="round" stroke-linejoin="round"/>
    <path d="M24 15V35" stroke="#000000" stroke-width="4" stroke-linecap="round" stroke-linejoin="round"/>
    <path d="M17 15H24H31" stroke="#000000" stroke-width="4" stroke-linecap="round" stroke-linejoin="round"/>
</svg>

<svg width="48" height="48" viewBox="0 0 48 48" fill="none" xmlns="http://www.w3.org/2000/svg"><path stroke-linejoin="round" stroke-linecap="round" stroke-width="4" stroke="#333" d="M6 33v6a3 3 0 0 0 3 3h6M33 42h6a3 3 0 0 0 3-3v-6M42 15V9a3 3 0 0 0-3-3h-6M6 15V9a3 3 0 0 1 3-3h6M24 15v20M17 15h14"/></svg>
